T: Pibroch Of Donald Dhu
M: 6/8
L: 1/8
K: Amaj
|: e>cc f>ga | e>cc c>BA | e>cc f>ga | ec>A B2 A |e>cc f>ga | e>cc c>BA | B2 c d>ef | ecA B2 A :|e>cc f>dd e>cc c>BA | e>cc f>dd | ec>A B2 A |e>cc f>dd e>cc c>BA | B2 c d>ef | ecA B2 A :||: e2 A f2 A | e2 A c>BA | e2 A f2 A | ec>A B2 A |e2 A f2 A | e2 a c>BA | B2 c d>ef | ecA B2 A :||: a>ee a>ff | a>ee c>BA | a>ee a>ff | ec>A B2 A |a>ee a>ff | a>ee c>BA | B2 c d>ef | ecA B2 A :|Bar 4 ~ | e>cA B2 A | ~ Bar 8 ~ | e>cA B2 A :|~ | e<cA B2 A | ~ or | ec>A B2 A | ~
